remix/System/external-link-line.svg

<svg viewBox="0 0 24 24" fill="currentColor" xmlns="http://www.w3.org/2000/svg"><path d="M10 6V8H5V19H16V14H18V20C18 20.5523 17.5523 21 17 21H4C3.44772 21 3 20.5523 3 20V7C3 6.44772 3.44772 6 4 6H10ZM21 3V11H19L18.9999 6.413L11.2071 14.2071L9.79289 12.7929L17.5849 5H13V3H21Z"/></svg>

<svg viewBox="0 0 24 24" xmlns="http://www.w3.org/2000/svg"><path fill="none" d="M0 0h24v24H0Z"/><path d="M10 6v2H5v11h11v-5h2v6 0c0 .55-.45 1-1 1H4v0c-.56 0-1-.45-1-1V7v0c0-.56.44-1 1-1h6Zm11-3v8h-2V6.413l-7.8 7.79 -1.42-1.42 7.79-7.8h-4.59v-2h8Z"/></svg>
